icons/svg/tourist/animal_elephant.svg

<?xml version="1.0" encoding="UTF-8" standalone="no"?>
<!-- Created with Inkscape (http://www.inkscape.org/) -->

<svg
   xmlns:dc="http://purl.org/dc/elements/1.1/"
   xmlns:cc="http://creativecommons.org/ns#"
   xmlns:rdf="http://www.w3.org/1999/02/22-rdf-syntax-ns#"
   xmlns:svg="http://www.w3.org/2000/svg"
   xmlns="http://www.w3.org/2000/svg"
   xmlns:sodipodi="http://sodipodi.sourceforge.net/DTD/sodipodi-0.dtd"
   xmlns:inkscape="http://www.inkscape.org/namespaces/inkscape"
   version="1.0"
   width="580"
   height="580"
   id="svg2"
   sodipodi:version="0.32"
   inkscape:version="0.92.3 (2405546, 2018-03-11)"
   sodipodi:docname="animal_elephant.svg"
   inkscape:output_extension="org.inkscape.output.svg.inkscape">
  <metadata
     id="metadata2975">
    <rdf:RDF>
      <cc:Work
         rdf:about="">
        <dc:format>image/svg+xml</dc:format>
        <dc:type
           rdf:resource="http://purl.org/dc/dcmitype/StillImage" />
        <cc:license
           rdf:resource="http://web.resource.org/cc/PublicDomain" />
        <dc:language>en</dc:language>
        <dc:title></dc:title>
      </cc:Work>
    </rdf:RDF>
  </metadata>
  <sodipodi:namedview
     inkscape:window-height="1006"
     inkscape:window-width="1920"
     inkscape:pageshadow="2"
     inkscape:pageopacity="0.0"
     guidetolerance="10.0"
     gridtolerance="10.0"
     objecttolerance="10.0"
     borderopacity="1.0"
     bordercolor="#666666"
     pagecolor="#ffffff"
     id="base"
     inkscape:zoom="0.65172414"
     inkscape:cx="113.99716"
     inkscape:cy="304.68491"
     inkscape:window-x="1920"
     inkscape:window-y="0"
     inkscape:current-layer="svg2"
     showgrid="false"
     inkscape:window-maximized="1" />
  <defs
     id="defs4">
    <inkscape:perspective
       sodipodi:type="inkscape:persp3d"
       inkscape:vp_x="0 : 290 : 1"
       inkscape:vp_y="0 : 1000 : 0"
       inkscape:vp_z="580 : 290 : 1"
       inkscape:persp3d-origin="290 : 193.33333 : 1"
       id="perspective2441" />
    <inkscape:perspective
       id="perspective3452"
       inkscape:persp3d-origin="30 : 20 : 1"
       inkscape:vp_z="60 : 30 : 1"
       inkscape:vp_y="0 : 1000 : 0"
       inkscape:vp_x="0 : 30 : 1"
       sodipodi:type="inkscape:persp3d" />
    <symbol
       viewBox="244.5 110 489 219.9"
       id="symbol-university">
      <path
         id="path4460"
         d="M79,43l57,119c0,0,21-96,104-96s124,106,124,106l43-133l82-17L0,17L79,43z" />
      <path
         id="path4462"
         d="M94,176l-21,39"
         stroke-width="20"
         stroke="#000000"
         fill="none" />
      <path
         id="path4464"
         d="M300,19c0,10.5-22.6,19-50.5,19S199,29.5,199,19s22.6-19,50.5-19S300,8.5,300,19z" />
      <path
         id="path4466"
         d="M112,216l-16-38L64,88c0,0-9-8-4-35s16-24,16-24"
         stroke-width="20"
         stroke="#000000"
         ill="none" />
    </symbol>
    <inkscape:perspective
       id="perspective4471"
       inkscape:persp3d-origin="372.04724 : 350.78739 : 1"
       inkscape:vp_z="744.09448 : 526.18109 : 1"
       inkscape:vp_y="0 : 1000 : 0"
       inkscape:vp_x="0 : 526.18109 : 1"
       sodipodi:type="inkscape:persp3d" />
    <inkscape:perspective
       id="perspective4668"
       inkscape:persp3d-origin="6 : 4 : 1"
       inkscape:vp_z="12 : 6 : 1"
       inkscape:vp_y="0 : 1000 : 0"
       inkscape:vp_x="0 : 6 : 1"
       sodipodi:type="inkscape:persp3d" />
    <inkscape:perspective
       id="perspective4904"
       inkscape:persp3d-origin="16 : 10.666667 : 1"
       inkscape:vp_z="32 : 16 : 1"
       inkscape:vp_y="0 : 1000 : 0"
       inkscape:vp_x="0 : 16 : 1"
       sodipodi:type="inkscape:persp3d" />
  </defs>
  <g
     id="g1327">
    <path
       d="M 66.275,1.768 C 24.94,1.768 1.704,23.139 1.704,66.804 L 1.704,516.927 C 1.704,557.771 22.599,579.156 63.896,579.156 L 515.92,579.156 C 557.227,579.156 578.149,558.841 578.149,516.927 L 578.149,66.804 C 578.149,24.203 557.227,1.768 514.628,1.768 C 514.624,1.768 66.133,1.625 66.275,1.768 z "
       style="fill:#111;stroke:#eee;stroke-width:3.40799999"
       id="path1329" />
  </g>
  <path
     style="fill:#ffffff;fill-opacity:1;stroke-width:8.98245525"
     d="m 138.31574,101.32385 c -48.416455,0.25591 -89.374994,41.37776 -89.374994,93.15038 v 208.75195 c -0.362101,22.29029 12.208479,42.77538 32.246089,52.54687 14.04495,7.36574 30.913825,6.87779 44.509755,-1.28711 13.59595,-8.1649 21.95318,-22.82662 22.05079,-38.68554 v -44.91211 l -25.01569,8.21424 v 25.79886 c 0.15423,10.51522 -7.71713,19.42132 -18.17169,20.55976 -5.557175,0.48344 -11.062675,-1.38787 -15.173595,-5.15832 -4.11091,-3.77044 -6.44994,-9.09359 -6.44755,-14.67175 v -26.52855 c 0.0511,-32.9444 29.171795,-88.98679 73.790935,-89.05604 h 26.94727 c 4.96088,0 8.98242,4.02155 8.98242,8.98244 0,4.96085 -4.02154,8.98241 -8.98242,8.98241 h -4.04102 c 13.77909,26.30961 23.00324,26.15723 23.53321,38.08593 l 6.55664,124.04687 c 0.27038,4.77042 4.20441,8.50765 8.98242,8.53321 h 48.23632 c 4.50432,-0.007 8.30702,-3.34837 8.89258,-7.81446 l 10.24024,-62.60741 c 0.72201,-4.86218 3.41137,-9.21322 7.4375,-12.03322 4.02611,-2.81998 9.03539,-3.86008 13.85155,-2.87694 15.4797,2.99643 31.2115,4.49941 46.97853,4.49024 12.09653,0.43717 24.1661,-1.42125 35.5703,-5.47852 5.08314,-1.71006 10.66306,-1.05962 15.2168,1.77343 4.55373,2.83306 7.60417,7.55163 8.3164,12.86718 l 10.41992,63.77541 c 0.54415,4.50172 4.3581,7.89171 8.89258,7.90429 h 48.23632 c 4.80911,-0.0323 8.75352,-3.81929 8.98242,-8.62304 l 7.09571,-133.11915 c 0.29957,-5.19584 2.10946,-10.19022 5.20898,-14.37109 12.74809,-17.40563 20.48443,-37.97239 22.3672,-59.46483 l 6.62992,6.23728 c 3.61323,3.39926 6.22484,6.30107 5.18583,11.15192 l -2.1695,10.12866 c -1.03903,4.85085 4.02153,8.98242 8.98241,8.98242 4.96088,0 8.86532,-4.02292 8.98242,-8.98242 l 0.27118,-11.48459 c 0.35131,-14.87848 -5.70626,-22.06408 -18.81168,-29.11677 l -9.07058,-4.88135 C 522.63672,213.66782 509.48573,183.94661 487.554,161.2926 466.14705,141.66363 435.62628,116.85781 339.62237,110.43908 c -4.05168,-0.0271 -8.1292,0.0464 -12.22461,0.22853 -11.85214,0.86212 -23.54112,3.27775 -34.76367,7.18554 34.04875,74.15538 11.27473,159.86583 -30.98828,201.29686 -6.89271,5.98245 -16.34921,8.06041 -25.11524,5.51953 -8.76601,-2.54088 -15.6465,-9.3545 -18.27148,-18.0957 -7.97282,-23.16319 -19.06252,-45.13285 -32.96484,-65.30274 -2.03442,-2.62441 -2.45511,-6.15682 -1.09375,-9.18554 1.36137,-3.02872 4.28245,-5.05857 7.5957,-5.27929 3.31326,-0.2207 6.47745,1.40519 8.22851,4.22656 14.9142,21.81918 26.84836,45.53246 35.48243,70.51171 0.90015,2.87429 3.19039,5.09859 6.08984,5.91406 2.89946,0.81552 6.0148,0.11067 8.28125,-1.87304 12.48561,-10.86878 41.58789,-43.65377 41.58789,-114.34571 0,-46.95129 -14.605,-89.91404 -61.79883,-89.91404 -4.90586,0.30154 -9.70043,1.58324 -14.10156,3.77148 -14.69247,6.50564 -31.33011,7.08524 -46.43945,1.61719 -10.39171,-3.73768 -20.76184,-5.44374 -30.81054,-5.39063 z m -44.462885,94.49291 c 7.393975,0 13.387935,5.99396 13.387935,13.38795 -0.0225,7.38482 -6.00311,13.36587 -13.387935,13.38793 -7.39399,0 -13.38794,-5.99395 -13.38794,-13.38793 0,-7.39399 5.99395,-13.38795 13.38794,-13.38795 z"
     id="Shape"
     inkscape:connector-curvature="0"
     sodipodi:nodetypes="ssccscccccscccssscccccccscccsccccccccsssssssccccccsccccccscscccssccss" />
</svg>

<svg width="580" height="580" viewBox="0 0 580 580" fill="none" xmlns="http://www.w3.org/2000/svg">
<g clip-path="url(#clip0)">
<path d="M66.2751 1.7679C24.9401 1.7679 1.7041 23.1389 1.7041 66.8039V516.927C1.7041 557.771 22.5991 579.156 63.8961 579.156H515.92C557.227 579.156 578.149 558.841 578.149 516.927V66.8039C578.149 24.2029 557.227 1.7679 514.628 1.7679C514.624 1.7679 66.1331 1.6249 66.2751 1.7679Z" fill="#111111" stroke="#EEEEEE" stroke-width="3.408"/>
<path d="M138.316 101.324C89.8993 101.58 48.9407 142.702 48.9407 194.474V403.226C48.5786 425.517 61.1492 446.002 81.1868 455.773C95.2318 463.139 112.101 462.651 125.697 454.486C139.293 446.321 147.65 431.659 147.747 415.801V370.888L122.732 379.103V404.901C122.886 415.417 115.015 424.323 104.56 425.461C99.0028 425.945 93.4973 424.073 89.3864 420.303C85.2755 416.532 82.9364 411.209 82.9388 405.631V379.103C82.9899 346.158 112.111 290.116 156.73 290.047H183.677C188.638 290.047 192.659 294.068 192.659 299.029C192.659 303.99 188.638 308.011 183.677 308.011H179.636C193.415 334.321 202.639 334.169 203.169 346.097L209.726 470.144C209.996 474.915 213.93 478.652 218.708 478.677H266.945C271.449 478.67 275.252 475.329 275.837 470.863L286.077 408.256C286.799 403.393 289.489 399.042 293.515 396.222C297.541 393.402 302.55 392.362 307.366 393.345C322.846 396.342 338.578 397.845 354.345 397.836C366.442 398.273 378.511 396.414 389.915 392.357C394.998 390.647 400.578 391.298 405.132 394.131C409.686 396.964 412.736 401.682 413.448 406.998L423.868 470.773C424.413 475.275 428.227 478.665 432.761 478.677H480.997C485.806 478.645 489.751 474.858 489.98 470.054L497.075 336.935C497.375 331.739 499.185 326.745 502.284 322.564C515.033 305.159 522.769 284.592 524.652 263.099L531.282 269.337C534.895 272.736 537.506 275.638 536.467 280.489L534.298 290.617C533.259 295.468 538.319 299.6 543.28 299.6C548.241 299.6 552.146 295.577 552.263 290.617L552.534 279.133C552.885 264.254 546.828 257.069 533.722 250.016L524.652 245.134C522.637 213.668 509.486 183.947 487.554 161.293C466.147 141.664 435.626 116.858 339.622 110.439C335.571 110.412 331.493 110.486 327.398 110.668C315.546 111.53 303.857 113.945 292.634 117.853C326.683 192.009 303.909 277.719 261.646 319.15C254.753 325.133 245.297 327.211 236.531 324.67C227.765 322.129 220.884 315.315 218.259 306.574C210.286 283.411 199.197 261.441 185.294 241.271C183.26 238.647 182.839 235.114 184.2 232.086C185.562 229.057 188.483 227.027 191.796 226.806C195.109 226.586 198.274 228.212 200.025 231.033C214.939 252.852 226.873 276.565 235.507 301.545C236.407 304.419 238.698 306.643 241.597 307.459C244.496 308.274 247.612 307.569 249.878 305.586C262.364 294.717 291.466 261.932 291.466 191.24C291.466 144.289 276.861 101.326 229.667 101.326C224.761 101.627 219.967 102.909 215.566 105.097C200.873 111.603 184.236 112.183 169.126 106.715C158.735 102.977 148.364 101.271 138.316 101.324V101.324ZM93.8528 195.817C101.247 195.817 107.241 201.811 107.241 209.205C107.218 216.59 101.238 222.571 93.8528 222.593C86.4588 222.593 80.4649 216.599 80.4649 209.205C80.4649 201.811 86.4588 195.817 93.8528 195.817Z" fill="white"/>
</g>
<defs>
<clipPath id="clip0">
<path d="M0 0H580V580H0V0Z" fill="white"/>
</clipPath>
</defs>
</svg>
